X: 16
T:Okaihau Express, The
M:6/8
L:1/8
Q:80
C:Peter Cape
K:D
"A"A3|"D"d2de2f|dd A-A2A|d2de2f|d6|
f2ef2e|f2f-f2d|"A"c6-|c3-czA|!
c2cd2e|c2A- A AA|cc2d2e|c3-c2z|
a2aa2^g|=g2e-e2c|"D"d6-|d2z:||
